src/components/00-materials/images-raw/Desktop.svg

<svg width="96" height="96" viewBox="0 0 96 96" fill="none" xmlns="http://www.w3.org/2000/svg">
<path d="M78 20H18C15.7909 20 14 21.7909 14 24V62C14 64.2091 15.7909 66 18 66H78C80.2091 66 82 64.2091 82 62V24C82 21.7909 80.2091 20 78 20Z" stroke="#00008F" stroke-width="2" stroke-linecap="round" stroke-linejoin="round"/>
<path d="M82 56H14M51 61H45M34 77C39 77 41 66 41 66M62 77C57 77 55 66 55 66M30 77H66" stroke="#00008F" stroke-width="2" stroke-linecap="round" stroke-linejoin="round"/>
</svg>

<svg width="96" height="96" viewBox="0 0 96 96" fill="none" xmlns="http://www.w3.org/2000/svg"><path d="M78 20H18a4 4 0 00-4 4v38a4 4 0 004 4h60a4 4 0 004-4V24a4 4 0 00-4-4z" stroke="#00008F" stroke-width="2" stroke-linecap="round" stroke-linejoin="round"/><path d="M82 56H14m37 5h-6M34 77c5 0 7-11 7-11m21 11c-5 0-7-11-7-11M30 77h36" stroke="#00008F" stroke-width="2" stroke-linecap="round" stroke-linejoin="round"/></svg>
